src/assets/lens-square.svg

<svg fill="none" height="14" viewBox="0 0 14 14" width="14" xmlns="http://www.w3.org/2000/svg" xmlns:xlink="http://www.w3.org/1999/xlink"><clipPath id="a"><rect height="14" rx="4" width="14"/></clipPath><g clip-path="url(#a)"><path d="m0 0h14v14h-14z" fill="#abfe2c"/><path d="m11.4155 10.1199-.0964.0446c-.5781.2652-1.2408.3356-1.86355.1948-.33605-.0751-.6486-.2065-.93295-.3872.564.1478 1.1797.0774 1.6991-.19713.0235-.01174.0493-.02582.0728-.0399l.1011-.05632-.282-.49518-.1011.05867c-.0188.01174-.0376.02112-.0564.03051-.56165.2957-1.22435.27458-1.7719-.05398-.48645-.291-.80135-.7721-.8789-1.3189.66975-.06102 2.3124-.34733 3.6308-1.66389.0352-.0352.0705-.0704.1034-.1056.3642-.38488.5381-.84251.5005-1.32595-.0329-.42477-.2279-.83546-.5475-1.15463-.3196-.31916-.7332-.51629-1.15625-.5468-.37835-.03051-.74965.07275-1.0763.2957-.07285-.38957-.26085-.72047-.5499-.96924-.3243-.27692-.752-.42946-1.20555-.42946s-.8836.15254-1.20555.42946c-.28905.24877-.47705.57967-.5499.96924-.32665-.22295-.6956-.32621-1.0763-.2957-.42535.03285-.8366.22764-1.1562.5468-.32195.32152-.517.73221-.54755 1.15463-.0376.48344.1363.94107.50055 1.32595.0329.0352.06815.0704.1034.1056 1.31835 1.31656 2.95865 1.60287 3.63075 1.66389-.07755.5468-.3948 1.0279-.8789 1.3189-.5499.3309-1.2126.34968-1.7719.05398-.0188-.00939-.0376-.02112-.0564-.03051l-.10105-.05867-.282.49518.10105.05632c.0235.01408.04935.02816.07285.0399.5217.27453 1.1374.34493 1.69905.19713-.282.1807-.5969.3121-.93295.3872-.62275.1408-1.28545.0704-1.86355-.1948l-.09635-.0446-.29375.4929.11515.054c.6909.3238 1.504.413 2.256.2464.7802-.176 1.457-.5985 1.95755-1.22272.03055-.03755.05875-.07744.0893-.11499v1.42451h.5687v-1.42921c.03055.0399.05875.08214.09165.11969.50055.62422 1.17735 1.04672 1.95755 1.22272.25145.0563.50995.0845.7685.0845.5146 0 1.0269-.115 1.4875-.3309l.1081-.054zm-5.6377-6.15562c0-.03286-.00235-.06571-.00235-.10092 0-.04459 0-.08917.00235-.13142.02115-.8026.6486-1.16871 1.222-1.16871s1.20085.36611 1.222 1.16871c.00235.04459.00235.08918.00235.13142 0 .03521 0 .06806-.00235.10326l-.02115.76506.53345-.56323c.02115-.02347.0423-.04459.0658-.06806.03055-.03051.06345-.06102.094-.09152.5828-.5515 1.2855-.36845 1.692.03754.4066.406.5899 1.10535.0376 1.6897-.0305.03286-.0611.06337-.0916.09388-1.4876 1.49022-3.5133 1.51603-3.5321 1.51603-.02115 0-2.04215-.02581-3.53205-1.51369-.03055-.03051-.0611-.06336-.09165-.09387-.55225-.58435-.36895-1.2837.0376-1.6897.2444-.24407.56635-.38487.88125-.38487.29375 0 .56635.11734.81075.34732.0329.03051.06345.06102.094.09153.0235.02581.047.04928.07285.0751l.52875.55619z" fill="#00501e"/></g></svg>

<svg width="14" height="14" viewBox="0 0 14 14" fill="none" xmlns="http://www.w3.org/2000/svg">
    <g clip-path="url(#clip0_16962_30265)">
        <rect width="14" height="14" fill="#ABFE2C" />
        <path
            d="M11.4155 10.1199L11.3191 10.1645C10.741 10.4297 10.0783 10.5001 9.45555 10.3593C9.1195 10.2842 8.80695 10.1528 8.5226 9.9721C9.0866 10.1199 9.7023 10.0495 10.2217 9.77497C10.2452 9.76323 10.271 9.74915 10.2945 9.73507L10.3956 9.67875L10.1136 9.18357L10.0125 9.24224C9.9937 9.25398 9.9749 9.26336 9.9561 9.27275C9.39445 9.56845 8.73175 9.54733 8.1842 9.21877C7.69775 8.92777 7.38285 8.44667 7.3053 7.89987C7.97505 7.83885 9.6177 7.55254 10.9361 6.23598C10.9713 6.20078 11.0066 6.16558 11.0395 6.13038C11.4037 5.7455 11.5776 5.28787 11.54 4.80443C11.5071 4.37966 11.3121 3.96897 10.9925 3.6498C10.6729 3.33064 10.2593 3.13351 9.83625 3.103C9.4579 3.07249 9.0866 3.17575 8.75995 3.3987C8.6871 3.00913 8.4991 2.67823 8.21005 2.42946C7.88575 2.15254 7.45805 2 7.0045 2C6.55095 2 6.1209 2.15254 5.79895 2.42946C5.5099 2.67823 5.3219 3.00913 5.24905 3.3987C4.9224 3.17575 4.55345 3.07249 4.17275 3.103C3.7474 3.13585 3.33615 3.33064 3.01655 3.6498C2.6946 3.97132 2.49955 4.38201 2.469 4.80443C2.4314 5.28787 2.6053 5.7455 2.96955 6.13038C3.00245 6.16558 3.0377 6.20078 3.07295 6.23598C4.3913 7.55254 6.0316 7.83885 6.7037 7.89987C6.62615 8.44667 6.3089 8.92777 5.8248 9.21877C5.2749 9.54967 4.6122 9.56845 4.0529 9.27275C4.0341 9.26336 4.0153 9.25163 3.9965 9.24224L3.89545 9.18357L3.61345 9.67875L3.7145 9.73507C3.738 9.74915 3.76385 9.76323 3.78735 9.77497C4.30905 10.0495 4.92475 10.1199 5.4864 9.9721C5.2044 10.1528 4.8895 10.2842 4.55345 10.3593C3.9307 10.5001 3.268 10.4297 2.6899 10.1645L2.59355 10.1199L2.2998 10.6128L2.41495 10.6668C3.10585 10.9906 3.91895 11.0798 4.67095 10.9132C5.45115 10.7372 6.12795 10.3147 6.6285 9.69048C6.65905 9.65293 6.68725 9.61304 6.7178 9.57549V11H7.2865V9.57079C7.31705 9.61069 7.34525 9.65293 7.37815 9.69048C7.8787 10.3147 8.5555 10.7372 9.3357 10.9132C9.58715 10.9695 9.84565 10.9977 10.1042 10.9977C10.6188 10.9977 11.1311 10.8827 11.5917 10.6668L11.6998 10.6128L11.4155 10.1199ZM5.7778 3.96428C5.7778 3.93142 5.77545 3.89857 5.77545 3.86336C5.77545 3.81877 5.77545 3.77419 5.7778 3.73194C5.79895 2.92934 6.4264 2.56323 6.9998 2.56323C7.5732 2.56323 8.20065 2.92934 8.2218 3.73194C8.22415 3.77653 8.22415 3.82112 8.22415 3.86336C8.22415 3.89857 8.22415 3.93142 8.2218 3.96662L8.20065 4.73168L8.7341 4.16845C8.75525 4.14498 8.7764 4.12386 8.7999 4.10039C8.83045 4.06988 8.86335 4.03937 8.8939 4.00887C9.4767 3.45737 10.1794 3.64042 10.5859 4.04641C10.9925 4.45241 11.1758 5.15176 10.6235 5.73611C10.593 5.76897 10.5624 5.79948 10.5319 5.82999C9.0443 7.32021 7.0186 7.34602 6.9998 7.34602C6.97865 7.34602 4.95765 7.32021 3.46775 5.83233C3.4372 5.80182 3.40665 5.76897 3.3761 5.73846C2.82385 5.15411 3.00715 4.45476 3.4137 4.04876C3.6581 3.80469 3.98005 3.66389 4.29495 3.66389C4.5887 3.66389 4.8613 3.78123 5.1057 4.01121C5.1386 4.04172 5.16915 4.07223 5.1997 4.10274C5.2232 4.12855 5.2467 4.15202 5.27255 4.17784L5.8013 4.73403L5.7778 3.96428Z"
            fill="#00501E" />
    </g>
    <defs>
        <clipPath id="clip0_16962_30265">
            <rect width="14" height="14" rx="4" fill="white" />
        </clipPath>
    </defs>
</svg>
